X:1
T:FUGA a 3 voci
T:Piotr Tomasz Harasimiuk (1973)
T:W setną rocznicę odzyskania Niepodległości (1918)
T:Na temat Polskiego Hymnu Narodowego "Jeszcze Polska nie zginęła"
T:FUGA a 3 voci
T:Copyright © 
T:Copyright © 
T:Copyright © 
T:Copyright © 
C:Piotr Tomasz Harasimiuk (1973)
Z:Copyright ©
%%score { ( 1 2 ) | 3 }
L:1/8
Q:1/4=135
M:4/4
K:D
V:1 treble nm="Piano" snm="Pno."
V:2 treble 
V:3 bass 
V:1
 z8 | z8 | z8 | z8 | cd e2 e2 ec | fedc BB e2- | ed d2 cBc^d | eB e2- e=gfe | d3 c Bc d2 | %9
 ^d2 e2 c2 =d2 | B2 c2 d2 z e | d2 c2 d2 z2 | A2 z2 d=cdB | B2 z2 edec | c2 z2 fefd | %15
 e2 z c d2 ge | fg a2 a2 af | bagf ee a2- | ag g2 fefd | g2 ga gfg^g | aba=g fefg | e2 f2 g3 a | %22
 fe f2 z2 gf | g2 B2 =cd e2 | B2 e2 A2 B2 | =G2 A2 B=cBA | GEed =c2 ^c2 | ^dBba g2 ^g2 | %28
 a=ggf feba | g2 ^g2 a2 ^a2 | b=a=gf e^df=A | G^DEF GABG | =cBAG FBAG | FEF^D E2 ^de | %34
 fe^d=c gfe=d | ed^cB e2 ^G2 | ABcB cd e2 | agfe dcBA | ^G2 B2 A2 z2 | A2 ^G2 c2 z2 | dc d2 d2 z2 | %41
 e2 _B2 G2 =fe | =f2 e2 d2 z2 | d3 c d2 A2 | e2 B2 A2 d2 | d2 c2 d2 z2 | GFGA Be^de | %47
 A2 ^d2 B=cBA | ^d2 =c2 B2 z2 | E2 A2 A2 z2 | F2 B2 B2 z2 | ^G2 c2 c2 z2 | d=e f2 f2 fd | %53
 gfed cc f2- | fe e2 d2 z2 | defe fedc | B2 e2 c2 f2- | f2 e2 c2 ^A2 | B2 B2 ^A2 z2 | d2 d2 c2 z2 | %60
 z4 z4 | z8 | z8 | cd e2 e2 ec | fedc BB e2- | ed d2 c2 z2 | d3 c Bc d2 | ^d2 e2 c2 =d2 | %68
 B2 Bc d2 c2 | z2 [=Bd=f]2 [Bdf]2 [=F^G=Bd]2 | [D=F^GB]2 [d=f^gb]2 [ceac']4 | %71
 z2 Tc3/2B/4c/4 !fermata!d4 |] %72
V:2
 FG A2 A2 AF | BAGF EE A2- | AG G2 FEF^G | AE A2- ABA^G | AF^GA BcGE | A2 BA ^GEFG | ABF^G A2 A2 | %7
w: Je- szcze Pol- ska nie zgi-|nę- * ła _ kie- dy my|_ ży- je- my... * * *|||||
 A3 =G FE A2 | AB E2 DE F2 | F2 B2 E2 F2 | =D2 E2 A2 AB | ABAG FGFE | D2 A2 BABG | E2 B2 ^cBcA | %14
w: |||||||
 F2 c2 dcdB | G2 z E FBBc | dBcd efcA | dcBA GFED | CABc d2 z2 | B=c d2 d2 dB | ed=cB AA d2- | %21
w: |||||||
 d=c c2 BAB^c | dA d2- d=cBA | GABF EF G2 | ^G2 A2 F2 =G2 | E2 F2 G2 z2 | z4 AEAG | F2 z2 B2 z2 | %28
w: |||||||
 x8 | eddc cBfe | ^d2 z2 z4 | x8 | x8 | x8 | z4 BAGF | GFE=D ^CDB,E | CD E2 E2 EC | FEDC B,B, E2- | %38
w: ||||||||||
 ED D2 CB,C^D | EB, E2- E=G=FE | =FGA_B A2 B2- | BAG=F Eedc | dc=Bc d2 z2 | ^FG A2 A2 AF | %44
w: ||||||
 BAGF EE A2- | AG G2 F2 z2 | z2 EF G2 FG | F2 F2 ^D2 D2 | F2 ^D2 E=FE=D | ^C2 ^C2 D2 z2 | %50
w: ||||||
 D2 ^D2 E2 z2 | E2 ^E2 F2 z2 | x8 | x8 | x8 | x8 | x8 | x8 | D2 F2 C2 z2 | F2 =A2 E2 z2 | %60
w: ||||||||||
 FG A2 A2 AF | BAGF EE A2- | AG G2 FEF^G | A3 B A3 E | A2 z2 ^G2 GF | ABF^G E2 z2 | A2 E2 DE F2 | %67
w: |||||||
 F2 B2 A2 F2 | =DE D2 F2 E2 | x8 | x8 | z2 [E=GA]2 [D^FA]4 |] %72
w: |||||
V:3
 z8 | z8 | z8 | z8 | z8 | z8 | z8 | z8 | F,G, A,2 A,2 A,F, | B,A,G,F, E,E, A,2- | %10
 A,G, G,2 F,E,F,^G, | A,E, A,2- A,B,A,=G, | F,E,F,D, G,2 z2 | ^G,F,G,E, A,2 z2 | %14
 ^A,^G,A,F, B,2 z2 | CB,C=A, DF,=G,A, | D,2 z2 z4 | z8 | z8 | z8 | z8 | z8 | z8 | B,=C D2 D2 DB, | %24
 ED=CB, A,A, D2- | D=C C2 B,2 z2 | E,2 G,2 A,2 z2 | B,2 ^D,2 E,B,E=D | =C2 ^C2 D2 ^D2 | E2 z2 z4 | %30
 B,,2 ^B,,2 C,2 ^D,2 | E,F, G,2 G,2 G,E, | A,G,F,E, ^D,D, B,2- | B,A, A,2 G,A,B,C | ^D2 z2 z4 | %35
 z8 | z8 | z8 | z8 | z8 | D,E, =F,2 F,2 F,D, | G,=F,E,D, C,C, A,2- | A,G, G,2 =F,G,F,E, | %43
 D,E,^F,E, F,E,F,D, | G,2 E,2 C,B,A,G, | F,G,A,A,, B,,D,G,F, | G,A, B,2 B,2 B,G, | %47
 =CB,A,G, F,F, B,2- | B,A, A,2 ^G,2 z2 | A,=G,A,E, F,E,F,D, | B,A,B,F, ^G,F,G,E, | %51
 CB,C^G, ^A,G,A,F, | B,CDC DCB,=A, | G,2 ^G,2 A,2 ^A,2 | B,2 C2 DED=C | B,^C D2 D2 DB, | %56
 EDCB, ^A,F,B,D, | E,D,E,C, F,E,F,F,, | B,,C,D,E, F,2 z2 | D,E,F,^G, A,2 z2 | DB,CD EFCA, | %61
 D2 B,2 A,G,F,E, | D,E, C,2 D,2 z2 | A,,B,,C,D, C,B,,C,A,, | D,2 F,2 E,2 B,,2 | C,2 D,2 A,,2 A,G, | %66
 [F,,F,][G,,G,] [A,,A,]2 [A,,A,]2 [A,,A,][F,,F,] | %67
 [B,,B,][A,,A,][G,,G,][F,,F,] [E,,E,][E,,E,] [A,,A,]2- | %68
 [A,,A,][G,,G,] [G,,G,]2 [A,,A,]2 [A,,,A,,]2 |!ped! [^G,,,^G,,]8- | %70
 [G,,,G,,]4!ped-up!!ped! [A,,,A,,]4 | z2 [A,,,A,,]2 [D,,D,]2 [D,,,D,,]2 |] %72

